X: 144
M: C
L: 1/8
K: Dmix
(g |\
f)dge ^cde(g | f)dge afbg | fdge ^cdeg | fde^c dDD(g |
f)dge ^cde(g | f)dge afbg | fdAF EFGB | A^ceg fdd |]


